X:1
T:Largo from Winter
T:Vivaldi
T:for Celtic Flute and Celtic Harp
%%score 1 { 2 | 3 }
L:1/8
Q:1/4=40
M:4/4
K:D
V:1 treble nm="Flute" snm="Fl."
V:2 treble nm="Harp" snm="Hrp."
V:3 bass 
V:1
"^Largo" z8 | z8 | da/g/ fe/d/ eA z A | g/f/e/d/ cg gf z f | ef/g/ ab/c'/ de/f/ ga/b/ | %5
 cd/e/ fg/a/ Bc/d/ ef/d/ | (c2 c/)A/^G/A/ (e2 e/)A/G/A/ | (f2 f/)A/^G/A/ (^g2 g/)e/d/e/ | %8
 aA z a a/^g/f/e/ d/c/B/A/ | TB3 A A2 z2 | Ae/d/ cB/A/ BE z E | %11
 d/c/B/A/ ^Gde/8d/8e/8d/8e/8d/8e/8d/8c z A | g/f/e/d/ cga/8g/8a/8g/8a/8g/8a/8g/8f z f | %13
 Bc/d/ ef/g/ cd/e/ fg/a/ | de/f/ ga/b/ c2 z c/d/ | e/c/B/A/ f/g/a/f/ eA z c/d/ | %16
 e/c/B/A/ f/g/a/f/ eA z e/a/ | fe/d/ c>d d4- | d8 | d6 z2 |] %20
V:2
 D/F/A/F/ D/F/A/F/ C/E/A/E/ C/E/A/E/ | C/E/G/E/ C/E/G/E/ D/F/A/F/ D/F/A/F/ | %2
 D/F/A/F/ D/F/A/F/ C/E/A/E/ C/E/A/E/ | C/E/G/E/ C/E/G/E/ D/F/A/F/ D/F/A/F/ | %4
 E/G/A/G/ A/G/F/E/ F/F/G/F/ G/F/E/D/ | E/E/F/E/ F/E/D/C/ D/D/E/D/ E/D/C/B,/ | %6
 C/E/A/E/ C/E/A/E/ C/E/A/E/ C/E/A/E/ | D/F/A/F/ D/F/A/F/ B,/E/G/E/ B,/E/G/B,/ | %8
 C/E/A/E/ C/E/A/E/ B,/E/A/E/ B,/E/A/E/ | ^G,/B,/E/B,/ G,/B,/E/B,/ A,/C/E/C/ A,/C/E/C/ | %10
 A,/C/E/C/ A,/C/E/C/ ^G,/B,/E/B,/ G,/B,/E/B,/ | ^G,/B,/D/B,/ G,/B,/D/B,/ C/E/A/E/ C/E/A/E/ | %12
 C/E/G/E/ C/E/G/E/ D/F/A/F/ D/F/A/F/ | D/G/D/G/ E/G/E/G/ E/A/E/A/ F/A/F/A/ | %14
 F/B/F/B/ G/B/G/B/ C/E/A/E/ C/E/A/E/ | C/E/A/E/ D/F/A/D/ C/E/A/E/ C/E/A/E/ | %16
 A,/C/E/C/ A,/D/F/D/ A,/C/E/C/ A,/C/E/C/ | D/F/A/D/ C/E/A/E/ D/F/A/F/ D/F/A/D/ | %18
 A,/D/F/D/ A,/D/F/D/ F,/A,/D/A,/ F,/A,/D/A,/ | F,6 z2 |] %20
V:3
 A,,8 | A,,8 | A,,8 | A,,8 | A,,6 G,,2 | G,,2 F,,4 E,,2 | E,,6 A,,2 | A,,4 B,,4 | E,,8 | %9
 E,,4 E,,4 | E,,8 | E,,8 | E,,2 A,,2 A,,4 | D,,2 E,,4 F,,2 | F,,2 G,,2 A,,4 | A,,8 | A,,8 | %17
 A,,4 A,,,4 | A,,,8 | D,,,6 z2 |] %20

